X: 35123
T: Rolling Waves, The
R: jig
M: 6/8
K: Dmajor
|:~FEF DED|D2d cAG|~FEF DED|A2F GFE|
~FEF DED|D2d cAG|~FEF ~GFG|1 A2F GFE:|2 ~AGA GFE||
|:D2d cAd|cAd cAG|F2d cAF|A2F GFE|
D2d cAd|fed cAG|~FEF ~GFG|A2F GFE:|

